X:1
T:Title
%%score { ( 1 3 ) | 2 }
L:1/8
M:4/4
K:Db
V:1 treble nm="Grand Piano"
V:3 treble 
V:2 bass 
V:1
 z4 z2[Q:1/4=100] [A,DF]>[A,EG] | [DFA]2 [DFA]2 [DFA]2 [A,DF]>[A,EG] | %2
 [DFA]2 [CEA]2 [DA]2 [DFA]>[A,EA] | [Dd]2 [Ed]2 [Ec]2 [FB]>[FB] |[M:7/8] [CEA]2 [DE=G]2 [CEA]3 | %5
[M:1/4] [GB]>[FA] |[M:4/4] [CG]2 [DG]2 [EG]2 [CA]>[EG] | F2 F2 F2 [Ad]>[Ac] | %8
 [GB]2 [AB]2 [=GB]2 [Ge]>[Gd] |[M:7/8] c2 c2 c3 |[M:1/4] B>c |[M:4/4] F2 G2 z4 | [FA]4 z4 | %13
 [EAc]4- [EAc]d e>c | [FAd]4 [DFA]2 [Fd]>[DAc] | [DGB]4- [DGB][DAc] (3[ce]d[DGB] | %16
 [DFA]4 [Fd]2 [DFA]>[A,DF] | [F,D]2 [A,DF]2 [DFA]2 [EGc]2 |[M:3/4] [DFd]6 |] %19
V:2
 z4 z2 D,>D, | D,2 D,2 D,2 D,>D, | D,2 G,2 F,2 D,>C, | [B,,F,]2 [B,,=G,]2 [C,A,]2 [D,D]>[D,D] | %4
[M:7/8] E,2 E,2 A,,3 |[M:1/4] [A,,A,]>[A,,A,] |[M:4/4] [A,,A,]2 [B,,A,]2 [C,A,]2 [A,,A,]>[A,,A,] | %7
 [D,A,D]2 [D,A,D]2 [D,A,D]2 [F,D]>[F,D] | [G,D]2 [F,=D]2 [E,E]2 [E,B,]>[E,E] | %9
[M:7/8][K:treble] [A,EA]2 [A,EA]2 [A,EA]3 |[M:1/4] [A,G]>[A,G] | %11
[M:4/4][K:bass] [D,A,]>D, [D,B,]>D, D,D, D,>D, | D,>D, D,>D, D,2 D,>F, | %13
 A,>A, A,>A, A,[K:treble][A,CA] [A,CA]>[A,EA] | D,>D, D,>D, D,2 [D,A,]>F, | %15
 G,>G, G,>G, G,G, (3[G,D]-[G,DB]G, | D,>D, D,>D, [D,A,]2 D,>D, | D,2 D,2 A,,2 A,,2 |[M:3/4] D,6 |] %19
V:3
 x8 | x8 | x8 | x8 |[M:7/8] x7 |[M:1/4] x2 |[M:4/4] x8 | x8 | x8 |[M:7/8] x7 |[M:1/4] x2 | %11
[M:4/4] d->[A,d-] d->[B,d-] [A,Fd][DFA] [A,DF]>[DGB] | D>D D>D [A,DF]2 [DFA]>[DAd] | x8 | x8 | x8 | %16
 x8 | x8 |[M:3/4] x6 |] %19

